X:75
T:?
M:2/2
L:1/8
S:Win Horan
R:Reel
K:ADor
~A3B AE~E2|GABG ~A3B|dBAB G3B|dBeB eBAd|
BAGB AE~E2|GABG ~A2Bd|ea~a2 gedB|GBdB BAA2:||
||:ea~a2 ea~a2|edef gedB|dg~g2 ag~g2|bgab ged2|
ea~a2 ea~a2|edef gedB|ea~a2 gedB|GBdB BAA2:||


